client/src/assets/icons/transport-spare-part.svg

<svg width="58" height="58" viewBox="0 0 58 58" fill="none" xmlns="http://www.w3.org/2000/svg">
<path fill-rule="evenodd" clip-rule="evenodd" d="M29 46.5402C19.3147 46.5402 11.4603 38.6858 11.4603 29.0005C11.4603 19.3149 19.3147 11.4605 29 11.4605C38.6861 11.4605 46.5405 19.3149 46.5405 29.0005C46.5405 38.685 38.6861 46.5402 29 46.5402ZM55.1826 23.9841H50.8404C50.3918 22.0244 49.6862 20.163 48.7613 18.4366L52.1132 15.085C53.2087 13.9895 53.2087 12.1971 52.1132 11.1015L47.9507 6.93909C46.8556 5.84354 45.0635 5.84354 43.9667 6.93909L40.8953 10.0113C39.2321 8.96708 37.4223 8.13584 35.5039 7.55509V2.81792C35.5039 1.26873 34.2361 0.000488281 32.6869 0.000488281H26.8006C25.2514 0.000488281 23.9837 1.26873 23.9837 2.81792V7.16012C22.0239 7.60871 20.1628 8.31433 18.4364 9.23971L15.0845 5.88809C13.989 4.79254 12.1969 4.79254 11.1013 5.88809L6.93885 10.0505C5.8433 11.1453 5.8433 12.9382 6.93885 14.0345L10.0115 17.1072C8.9681 18.7699 8.13687 20.5789 7.55561 22.4966H2.81693C1.26774 22.4966 0 23.7636 0 25.3136V31.1999C0 32.7498 1.26774 34.0168 2.81693 34.0168H7.16063C7.60847 35.9766 8.31484 37.8377 9.23947 39.5636L5.8871 42.916C4.79155 44.0115 4.79155 45.8036 5.8871 46.8992L10.0496 51.0611C11.1451 52.1567 12.9372 52.1567 14.0335 51.0611L17.107 47.9877C18.7689 49.0316 20.5784 49.8629 22.4956 50.4444V55.1828C22.4956 56.7322 23.7639 57.9997 25.3133 57.9997H31.1997C32.7489 57.9997 34.0163 56.7322 34.0163 55.1828V50.8406C35.9761 50.392 37.838 49.6864 39.5639 48.761L42.9162 52.1134C44.011 53.2082 45.8039 53.2082 46.8994 52.1134L51.0614 47.9509C52.157 46.8554 52.157 45.0633 51.0614 43.967L47.988 40.8943C49.0319 39.2315 49.8634 37.4226 50.4439 35.5048H55.1826C56.7325 35.5048 58 34.2371 58 32.6872V26.8008C58 25.2516 56.7325 23.9841 55.1826 23.9841Z" fill="#011034"/>
<path fill-rule="evenodd" clip-rule="evenodd" d="M38.2948 31.6399C38.2916 32.0455 37.9069 32.3707 37.4611 32.3669L34.2781 32.3418C34.0249 32.3392 33.8303 32.1079 33.8328 31.8237L33.8386 31.1309C33.8406 30.8467 34.039 30.5856 34.2922 30.5464L37.4797 30.0482C37.9263 29.9787 38.3064 30.2473 38.3034 30.6526L38.2948 31.6399ZM24.1881 31.7456C24.1855 32.0299 23.9869 32.2587 23.7344 32.2562L20.5507 32.231C20.1054 32.2272 19.7253 31.8959 19.7285 31.4904L19.7369 30.5026C19.7401 30.0973 20.1248 29.835 20.5693 29.9123L23.7485 30.4613C24.001 30.5046 24.1959 30.7687 24.1931 31.0529L24.1881 31.7456ZM21.859 22.6829C21.9582 22.3466 22.0936 22.0228 22.261 21.7187V21.7258C22.3766 21.568 22.4926 21.4101 22.6084 21.2523C22.8747 20.9693 23.2355 20.814 23.6086 20.8223L35.1353 20.9152C36.0889 20.923 36.6613 21.7988 36.8547 22.804L37.5635 26.1108L20.9162 25.9761L21.859 22.6829ZM39.4974 27.4671L39.1268 26.8454C40.2496 26.5063 40.8739 25.673 40.7676 25.0608C40.7123 24.7413 40.4396 24.3804 40.051 24.2535C39.549 24.0891 39.1321 24.408 39.0825 24.4473C38.9388 24.7315 38.795 25.0165 38.6513 25.3012L37.9437 22.1137C37.6512 20.8004 36.939 19.6462 35.6881 19.6359C31.5269 19.6057 27.3665 19.5755 23.2053 19.5445C21.9544 19.5342 21.3067 20.7005 20.9122 21.9876L19.9083 25.2504L19.4436 24.2887C19.4229 24.2701 18.9487 23.8409 18.3976 24.0511C18.0245 24.1936 17.7965 24.5608 17.7469 24.8695C17.6462 25.4887 18.1972 26.2724 19.1742 26.5971C16.8162 28.2193 17.1173 31.0934 17.3209 34.2816C17.3182 34.3209 17.3177 34.3609 17.3194 34.4007L17.3053 36.1744C17.3041 36.5984 17.6193 36.9437 18.0117 36.9483L21.0373 36.9727C21.4298 36.9747 21.75 36.6344 21.7558 36.2104L21.7611 35.5917L36.1057 35.7072L36.1005 36.3265C36.0992 36.7504 36.4144 37.0953 36.8068 37.0998L39.841 37.1242C40.2335 37.1263 40.5544 36.7859 40.5602 36.3625L40.571 34.9873C40.8399 30.8356 40.9957 29.1588 39.4974 27.4671Z" fill="#011034"/>
</svg>

<svg xmlns="http://www.w3.org/2000/svg" width="58" height="58" fill="none" viewBox="0 0 58 58">
  <path fill="#011034" fill-rule="evenodd" d="M29 46.54c-9.685 0-17.54-7.854-17.54-17.54 0-9.685 7.855-17.54 17.54-17.54 9.686 0 17.54 7.855 17.54 17.54 0 9.685-7.854 17.54-17.54 17.54Zm26.183-22.556H50.84a22.26 22.26 0 0 0-2.079-5.547l3.352-3.352a2.825 2.825 0 0 0 0-3.984L47.951 6.94a2.825 2.825 0 0 0-3.984 0l-3.072 3.072a22.276 22.276 0 0 0-5.391-2.456V2.818A2.826 2.826 0 0 0 32.687 0H26.8a2.826 2.826 0 0 0-2.817 2.818V7.16a22.24 22.24 0 0 0-5.548 2.08l-3.351-3.352a2.825 2.825 0 0 0-3.984 0L6.94 10.05a2.825 2.825 0 0 0 0 3.984l3.072 3.073a22.315 22.315 0 0 0-2.455 5.39h-4.74A2.825 2.825 0 0 0 0 25.314V31.2a2.825 2.825 0 0 0 2.817 2.817H7.16a22.227 22.227 0 0 0 2.078 5.547l-3.352 3.352a2.825 2.825 0 0 0 0 3.983l4.163 4.162a2.825 2.825 0 0 0 3.983 0l3.074-3.073a22.297 22.297 0 0 0 5.389 2.456v4.739A2.826 2.826 0 0 0 25.313 58H31.2a2.825 2.825 0 0 0 2.816-2.817V50.84a22.234 22.234 0 0 0 5.548-2.08l3.352 3.352a2.826 2.826 0 0 0 3.983 0l4.162-4.162a2.825 2.825 0 0 0 0-3.984l-3.073-3.073a22.268 22.268 0 0 0 2.456-5.39h4.739A2.825 2.825 0 0 0 58 32.688v-5.886a2.825 2.825 0 0 0-2.817-2.817Z" clip-rule="evenodd"/>
  <path fill="#011034" fill-rule="evenodd" d="M38.295 31.64c-.003.405-.388.73-.834.727l-3.183-.025c-.253-.003-.448-.234-.445-.518l.006-.693c.002-.284.2-.545.453-.585l3.188-.498c.446-.07.827.2.823.605l-.008.987Zm-14.107.106c-.002.284-.201.513-.453.51l-3.184-.025c-.446-.004-.826-.335-.822-.74l.008-.988c.003-.406.388-.668.832-.59l3.18.548c.252.044.447.308.444.592l-.005.693Zm-2.329-9.063c.1-.336.235-.66.402-.964v.007l.347-.474a1.333 1.333 0 0 1 1-.43l11.527.093c.954.008 1.526.884 1.72 1.889l.709 3.307-16.648-.135.943-3.293Zm17.638 4.784-.37-.622c1.123-.339 1.747-1.172 1.64-1.784a1.098 1.098 0 0 0-.716-.808c-.502-.164-.919.155-.968.194l-.432.854-.707-3.187c-.293-1.314-1.005-2.468-2.256-2.478l-12.483-.091c-1.25-.01-1.898 1.155-2.293 2.443l-1.004 3.262-.464-.961c-.021-.019-.495-.448-1.046-.238-.373.143-.601.51-.651.819-.1.619.45 1.402 1.427 1.727-2.358 1.622-2.057 4.496-1.853 7.685a1.176 1.176 0 0 0-.002.119l-.014 1.773c0 .424.314.77.707.774l3.025.025c.393.002.713-.339.719-.763l.005-.618 14.345.115-.006.62c0 .423.314.768.707.773l3.034.024c.392.002.713-.338.72-.762l.01-1.375c.269-4.151.425-5.828-1.074-7.52Z" clip-rule="evenodd"/>
</svg>
